icon/ir/mic-mute.svg

<svg stroke-width="1.5" viewBox="0 0 24 24" fill="none" xmlns="http://www.w3.org/2000/svg" height="1em" width="1em">
  <path d="M3 3L21 21" stroke="currentColor" stroke-linecap="round" stroke-linejoin="round"/>
  <path d="M9 9V9C9 11.7614 11.2386 14 14 14V14M15 10.5V5C15 3.34315 13.6569 2 12 2V2C10.3431 2 9 3.34315 9 5V5.5" stroke="currentColor" stroke-linecap="round" stroke-linejoin="round"/>
  <path d="M5 10V11C5 14.866 8.13401 18 12 18V18V18C15.866 18 19 14.866 19 11V10" stroke="currentColor" stroke-linecap="round" stroke-linejoin="round"/>
  <path d="M12 18V22M12 22H9M12 22H15" stroke="currentColor" stroke-linecap="round" stroke-linejoin="round"/>
</svg>

<svg width="24" height="24" stroke-width="1.5" fill="none" xmlns="http://www.w3.org/2000/svg"><path d="m3 3 18 18M9 9v0a5 5 0 0 0 5 5v0m1-3.5V5a3 3 0 0 0-3-3v0a3 3 0 0 0-3 3v.5" stroke="currentColor" stroke-linecap="round" stroke-linejoin="round"/><path d="M5 10v1a7 7 0 0 0 7 7v0a7 7 0 0 0 7-7v-1M12 18v4m0 0H9m3 0h3" stroke="currentColor" stroke-linecap="round" stroke-linejoin="round"/></svg>
